packages/tokens/icons/truck/size24Px.svg

<svg viewBox="0 0 24 24" fill="none" xmlns="http://www.w3.org/2000/svg" width="1em" height="1em"><path d="M6 18.5C6.82843 18.5 7.5 17.8284 7.5 17C7.5 16.1716 6.82843 15.5 6 15.5C5.17157 15.5 4.5 16.1716 4.5 17C4.5 17.8284 5.17157 18.5 6 18.5Z" stroke="currentColor" stroke-linecap="round" stroke-linejoin="round"/><path d="M17.5 18.5C18.3284 18.5 19 17.8284 19 17C19 16.1716 18.3284 15.5 17.5 15.5C16.6716 15.5 16 16.1716 16 17C16 17.8284 16.6716 18.5 17.5 18.5Z" stroke="currentColor" stroke-linecap="round" stroke-linejoin="round"/><path d="M7.5 16.5H16" stroke="currentColor" stroke-linecap="round" stroke-linejoin="round"/><path d="M14 13.5L3 13.5" stroke="currentColor" stroke-linecap="round"/><path d="M14.5 16.5L14.5 7.5C14.5 6.39543 13.6046 5.5 12.5 5.5L4.5 5.5C3.39543 5.5 2.5 6.39543 2.5 7.5L2.5 15.5C2.5 16.0523 2.94772 16.5 3.5 16.5H4.5" stroke="currentColor"/><path d="M6 10L7.5 11.5L10.5 8.5" stroke="currentColor" stroke-linecap="round" stroke-linejoin="round"/><path d="M20.5 11.5H18.5" stroke="currentColor" stroke-linecap="round"/><path d="M14.5 8.5H17.7639C18.5215 8.5 19.214 8.928 19.5528 9.60557L21.2889 13.0777C21.4277 13.3554 21.5 13.6616 21.5 13.9721V15.5C21.5 16.0523 21.0523 16.5 20.5 16.5H19" stroke="currentColor"/></svg>

<svg xmlns="http://www.w3.org/2000/svg" fill="none" viewBox="0 0 24 24" width="1em" height="1em"><path stroke="currentColor" stroke-linecap="round" stroke-linejoin="round" d="M6 18.5a1.5 1.5 0 1 0 0-3 1.5 1.5 0 0 0 0 3Zm11.5 0a1.5 1.5 0 1 0 0-3 1.5 1.5 0 0 0 0 3Zm-10-2H16"/><path stroke="currentColor" stroke-linecap="round" d="M14 13.5H3"/><path stroke="currentColor" d="M14.5 16.5v-9a2 2 0 0 0-2-2h-8a2 2 0 0 0-2 2v8a1 1 0 0 0 1 1h1"/><path stroke="currentColor" stroke-linecap="round" stroke-linejoin="round" d="m6 10 1.5 1.5 3-3"/><path stroke="currentColor" stroke-linecap="round" d="M20.5 11.5h-2"/><path stroke="currentColor" d="M14.5 8.5h3.264a2 2 0 0 1 1.789 1.106l1.736 3.472a2 2 0 0 1 .211.894V15.5a1 1 0 0 1-1 1H19"/></svg>
